!!!COM: Bach, Johann Sebastian
!!!CDT: 1685/02/21/-1750/07/28/
!!!OTL@@DE: Mach's mit mir, Gott, nach deiner G&uuml;t
!!!SCT: BWV 377
!!!PC#: 44
!!!AGN: chorale
**harm	**kern	**kern	**kern	**kern
*	*ICvox	*ICvox	*ICvox	*ICvox
*	*Ibass	*Itenor	*Ialto	*Isoprn
*	*I"Bass	*I"Tenor	*I"Alto	*I"Soprano
*>[A,A,B]	*>[A,A,B]	*>[A,A,B]	*>[A,A,B]	*>[A,A,B]
*>norep[A,B]	*>norep[A,B]	*>norep[A,B]	*>norep[A,B]	*>norep[A,B]
*>A	*>A	*>A	*>A	*>A
*	*	*oclefC4	*oclefC3	*oclefC1
*	*clefF4	*clefGv2	*clefG2	*clefG2
*k[f#c#]	*k[f#c#]	*k[f#c#]	*k[f#c#]	*k[f#c#]
*D:	*D:	*D:	*D:	*D:
*M4/4	*M4/4	*M4/4	*M4/4	*M4/4
*met(c)	*met(c)	*met(c)	*met(c)	*met(c)
*MM100	*MM100	*MM100	*MM100	*MM100
I	4D	4F#	4A	4d
=1	=1	=1	=1	=1
I	4DL	4A	4d	4f#
IV6	4BB	4G	4d	4g
V6	4C#	4E	4e	4a
I	4D	4F#	4d	4a
=2	=2	=2	=2	=2
viio6	4E	4G	4c#	4g
I6	4F#	4A	4d	4f#
V;	4A;	4A;	4c#;	4e;
V6	4c#	4A	4e	4a
=3	=3	=3	=3	=3
A:ii	8BL	8dL	8f#L	8bL
viio6	8BJ	8dJ	8g#J	8bJ
I	4A	4e	4a	4cc#
V65	4G#	4e	4b	4dd
I	4A	4e	4a	4cc#
=4	=4	=4	=4	=4
ii65	4D	4f#	4a	4b
V7	4E	4d	4g#	4b
I;	4AA;	4c#;	4e;	4a;
*>B	*>B	*>B	*>B	*>B
I	4A	4c#	4e	4a
=5	=5	=5	=5	=5
D:I6	4F#	4A	4f#	4dd
iii7	4F#	4A	4e	4cc#
IV	4G	4B	4d	4b
V65/ii	4D#	4B	4f#	4a
=6	=6	=6	=6	=6
ii	8EL	8BL	8eL	8gL
viio6	8EJ	8c#J	8eJ	8gJ
I6	8F#L	8dnXL	8AL	8f#L
viio7/V	8G#J	8dJ	8BJ	8f#J
V;	4A;	4A;	4c#;	4e;
iii	4F#	4c#	4f#	4a
=7	=7	=7	=7	=7
IV6	8BBL	8BL	8dL	8gL
V65	8C#J	8AJ	8eJ	8gJ
I	4D	4A	4d	4f#
V	4AA	4A	4c#	4e
IV6	4BB	4G	4d	4g
=8	=8	=8	=8	=8
V(64)	4AA	4A	4d	4f#
V7	4AA	4G	4c#	4e
I;	4DD;	4F#;	4A;	4d;
==	==	==	==	==
*-	*-	*-	*-	*-
!!!YOR1: 371 vierstimmige Choralges&auml;nge von Johann Sebastian Bach, 
!!!YOR2: 4th ed. by Alfred D&ouml;rffel (Leipzig: Breitkopf und H&auml;rtel, 
!!!YOR2: c.1875). 178 pp. Plate "V.A.10".  reprint: J.S. Bach, 371 Four-Part 
!!!YOR4: Chorales (New York: Associated Music Publishers, Inc., c.1940).
!!!SMS: B&H, 4th ed, Alfred D&ouml;rffel, c.1875, plate V.A.10
!!!EED:  Craig Stuart Sapp
!!!EEV:  2009/05/22
